icon-themes/sifr_svg/wizards/res/formarrangelisttop_42.svg

<svg viewBox="0 0 42 42" xmlns="http://www.w3.org/2000/svg"><g fill="#555753"><path d="m3 3v2h9v-2zm20 0v2h9v-2zm-20 13v2h9v-2zm20 0v2h9v-2zm-20 13v2h9v-2zm20 0v2h9v-2z"/><path d="m3 6v7h16v-7zm20 0v7h16v-7zm-18 2h12v3h-12zm20 0h12v3h-12zm-22 11v7h16v-7zm20 0v7h16v-7zm-18 2h12v3h-12zm20 0h12v3h-12zm-22 11v7h16v-7zm20 0v7h16v-7zm-18 2h12v3h-12zm20 0h12v3h-12z" opacity=".35"/></g></svg>

<svg xmlns="http://www.w3.org/2000/svg" viewBox="0 0 42 42">
  <path
     style="fill:#555753"
     d="M 3 3 L 3 5 L 12 5 L 12 3 L 3 3 z M 23 3 L 23 5 L 32 5 L 32 3 L 23 3 z M 3 16 L 3 18 L 12 18 L 12 16 L 3 16 z M 23 16 L 23 18 L 32 18 L 32 16 L 23 16 z M 3 29 L 3 31 L 12 31 L 12 29 L 3 29 z M 23 29 L 23 31 L 32 31 L 32 29 L 23 29 z "
     />
  <path
     style="opacity:0.35;fill:#555753"
     d="M 3 6 L 3 13 L 19 13 L 19 6 L 3 6 z M 23 6 L 23 13 L 39 13 L 39 6 L 23 6 z M 5 8 L 17 8 L 17 11 L 5 11 L 5 8 z M 25 8 L 37 8 L 37 11 L 25 11 L 25 8 z M 3 19 L 3 26 L 19 26 L 19 19 L 3 19 z M 23 19 L 23 26 L 39 26 L 39 19 L 23 19 z M 5 21 L 17 21 L 17 24 L 5 24 L 5 21 z M 25 21 L 37 21 L 37 24 L 25 24 L 25 21 z M 3 32 L 3 39 L 19 39 L 19 32 L 3 32 z M 23 32 L 23 39 L 39 39 L 39 32 L 23 32 z M 5 34 L 17 34 L 17 37 L 5 37 L 5 34 z M 25 34 L 37 34 L 37 37 L 25 37 L 25 34 z "
     />
</svg>
